X:1
T:Title
%%score { ( 1 4 ) | ( 2 3 5 ) }
L:1/8
M:3/4
K:Eb
V:1 treble nm="Grand Piano"
V:4 treble 
V:2 bass 
V:3 bass 
V:5 bass 
V:1
 z2 z2[Q:1/4=85] E2 | G>G G2 B2 | B>A A2 G2 | F3 F B>A |[M:2/4] G4 |[M:1/4] B2 |[M:3/4] c>c c2 F2 | %7
 B2 z2 z2 |[M:7/8] [B,EG]3 B,G3/2F3/2 |[M:2/4] E4 |[M:1/4] E2 |[M:3/4] _G>G G2 [CF]2 | F2 z2 z2 | %13
 _G3 G F>E |[M:2/4] D4 |[M:1/4] E2 |[M:3/4] _G>G A2 =A2 | B>B B2 B2 | =B3 B _B>=A |[M:4/4] B6 z2 | %20
[M:2/4] B2 AF | E2 [DF]2 | G2 BB | [Ge]>[Bd] [Ac]>[GB] | [GB]2 [EG][GB] | [FA]>G [B,FA][A,DF] | %26
[M:5/8] [G,E]3 z2 |] %27
V:2
 z6 | [E,B,E]4 z2 | [F,D]4 z2 | [B,,B,]6 |[M:2/4] [E,B,E]4 |[M:1/4] z2 |[M:3/4] z2 z2 [CE]2 | %7
 z z/[K:treble] B/ B2[K:bass] B,,2 |[M:7/8] z z z2 D3 |[M:2/4] [E,G,]4 |[M:1/4] z2 | %11
[M:3/4] [E,B,]4 z2 | B,,6 | [E,B,E]4 [E,B,]->[E,G,B,] |[M:2/4] [B,,F,B,]4 |[M:1/4] z2 |[M:3/4] E6 | %17
 [B,,F,]4 z2 | [=B,,=B,]3 [B,,B,] [_B,,_B,]>[=A,,=A,] |[M:4/4] [B,,B,]6 z2 | %20
[M:2/4] [E,G,E]2 [B,,B,]2 | [C,G,]2 [B,,B,]2 | [E,B,E]2 [E,G,E][E,G,E] | [E,B,]2 [E,E]>[E,E] | %24
 [E,E]2 [E,B,][E,B,] | z z/ E/ B,,B,, |[M:5/8] E,3 z2 |] %27
V:3
 x6 | x6 | B,4- [E,B,E]2 | x6 |[M:2/4] x4 |[M:1/4] x2 |[M:3/4] [A,,A,]6 | %7
 [B,,F,]4[K:treble][K:bass] z2 |[M:7/8] z z2 G,B,3/2A,3/2 |[M:2/4] x4 |[M:1/4] x2 | %11
[M:3/4] E4- [A,,E]2 | x6 | z2 z2 A,2 |[M:2/4] x4 |[M:1/4] x2 |[M:3/4] E,2 [C,A,]2 [=B,,F,]2 | x6 | %18
 x6 |[M:4/4] x8 |[M:2/4] x4 | x4 | x4 | x4 | x4 | [B,,B,]2 z2 |[M:5/8] x5 |] %27
V:4
 x6 | x6 | x6 | D6 |[M:2/4] x4 |[M:1/4] x2 |[M:3/4] [EF]4 z2 | D4- [B,DA]2 |[M:7/8] x7 | %9
[M:2/4] x4 |[M:1/4] x2 |[M:3/4] x6 | [B,D]->[B,-D-F] [B,-D-B]2 [B,DF]2 | x6 |[M:2/4] x4 | %15
[M:1/4] x2 |[M:3/4] x6 | D4 z2 | x6 |[M:4/4] x8 |[M:2/4] z2 D2 | x4 | x4 | x4 | x4 | x4 | %26
[M:5/8] x5 |] %27
V:5
 x6 | x6 | x6 | x6 |[M:2/4] x4 |[M:1/4] x2 |[M:3/4] x6 | x3/2[K:treble] x5/2[K:bass] x2 | %8
[M:7/8] B,,-B,,-B,,- B,,- B,,3 |[M:2/4] x4 |[M:1/4] x2 |[M:3/4] x6 | x6 | x6 |[M:2/4] x4 | %15
[M:1/4] x2 |[M:3/4] x6 | x6 | x6 |[M:4/4] x8 |[M:2/4] x4 | x4 | x4 | x4 | x4 | x4 |[M:5/8] x5 |] %27

